Costumes/w-block.svg

<?xml version="1.0" encoding="UTF-8" standalone="no"?>
<svg
   version="1.1"
   width="96.385544"
   height="80"
   id="svg5"
   sodipodi:docname="w-block.svg"
   xmlns:inkscape="http://www.inkscape.org/namespaces/inkscape"
   xmlns:sodipodi="http://sodipodi.sourceforge.net/DTD/sodipodi-0.dtd"
   xmlns="http://www.w3.org/2000/svg"
   xmlns:svg="http://www.w3.org/2000/svg">
  <defs
     id="defs9" />
  <sodipodi:namedview
     id="namedview7"
     pagecolor="#ffffff"
     bordercolor="#000000"
     borderopacity="0.25"
     inkscape:showpageshadow="2"
     inkscape:pageopacity="0.0"
     inkscape:pagecheckerboard="0"
     inkscape:deskcolor="#d1d1d1" />
  <!-- Exported by Scratch - http://scratch.mit.edu/ -->
  <g
     id="ID0.9138977387920022"
     transform="translate(-0.59699402,-0.00482767)">
    <path
       id="ID0.025131658650934696"
       fill="#ff9400"
       d="m 354,364 c -0.654,7.261 -6.335,11.825 -9,17 -5.858,11.377 -5.513,29.96 -11,43 -4,0 -8,0 -12,0 -1.741,-13.592 -6.632,-24.034 -13,-33 -7.8,7.533 -8.203,22.464 -12,34 -2.163,0.82 -7.273,-0.553 -11,1 -8.117,-19.883 -15.752,-40.248 -24,-60 3.252,-2.748 8.131,-3.869 14,-4 4.89,13.11 8.072,27.928 17,37 4.119,-10.214 10.885,-17.782 16,-27 8.817,4.516 9.945,16.722 18,22 4.916,-3.625 2.461,-9.933 4,-15 0.604,-1.988 3.169,-3.08 4,-5 1.886,-4.357 1.459,-10.848 4,-15 7.671,-1.004 11.392,1.941 15,5 z"
       transform="matrix(0.96385545,0,0,0.96385545,-246.15,-341.2)" />
    <path
       id="ID0.4344252715818584"
       d="m 294,437 c -6,0 -12,0 -18,0 -7.567,-16.434 -12.675,-35.325 -20,-52 0,-4.667 0,-9.333 0,-14 6.603,-1.005 0.122,-5.831 1,-10 9.347,1.014 13.862,-2.804 21,-4 3.002,10.331 7.104,19.562 11,29 4.613,-6.053 7.005,-14.329 12,-20 3.417,-0.75 1.271,4.063 5,3 1.566,-1.434 0.787,-5.212 4,-5 5.68,2.654 5.369,11.298 11,14 2.63,-6.037 4.665,-12.668 7,-19 2.465,-0.132 4.818,-0.151 6,1 -0.045,-3.044 2.111,-3.889 3,-6 1,0 2,0 3,0 0,0.333 0,0.667 0,1 6.097,0.57 10.74,2.593 16,4 0,3.333 0,6.667 0,10 -0.333,0 -0.667,0 -1,0 -2.126,9.274 -8.218,18.17 -11,28 -0.599,2.117 0.416,4.956 0,7 -1.484,7.299 -7.304,14.281 -5,22 -8.704,-1.371 -4.947,9.72 -11,11 -1,0 -2,0 -3,0 0,-0.333 0,-0.667 0,-1 -3.676,-2.004 -6.724,-0.091 -11,0 -3.716,-10.838 -1.658,-21.552 -8,-29 -1.605,7.395 -3.974,14.025 -6,21 -7.325,-1.484 -4.969,6.797 -6,9 z m 45,-78 c -2.541,4.152 -2.114,10.643 -4,15 -0.831,1.92 -3.396,3.012 -4,5 -1.539,5.067 0.916,11.375 -4,15 -8.055,-5.278 -9.183,-17.484 -18,-22 -5.115,9.218 -11.881,16.786 -16,27 -8.928,-9.072 -12.11,-23.89 -17,-37 -5.869,0.131 -10.748,1.252 -14,4 8.248,19.752 15.883,40.117 24,60 3.727,-1.553 8.837,-0.18 11,-1 3.797,-11.536 4.2,-26.467 12,-34 6.368,8.966 11.259,19.408 13,33 4,0 8,0 12,0 5.487,-13.04 5.142,-31.623 11,-43 2.665,-5.175 8.346,-9.739 9,-17 -3.608,-3.059 -7.329,-6.004 -15,-5 z"
       transform="matrix(0.96385545,0,0,0.96385545,-246.15,-341.2)" />
  </g>
</svg>

<svg version="1.1" width="97" height="80" xmlns="http://www.w3.org/2000/svg" xmlns:xlink="http://www.w3.org/1999/xlink">
  <!-- Exported by Scratch - http://scratch.mit.edu/ -->
  <g id="ID0.9138977387920022">
    <path id="ID0.025131658650934696" fill="#FF9400" d="M 354 364 C 353.346 371.261 347.665 375.825 345 381 C 339.142 392.377 339.487 410.960 334 424 C 330 424 326 424 322 424 C 320.259 410.408 315.368 399.966 309 391 C 301.200 398.533 300.797 413.464 297 425 C 294.837 425.820 289.727 424.447 286 426 C 277.883 406.117 270.248 385.752 262 366 C 265.252 363.252 270.131 362.131 276 362 C 280.890 375.110 284.072 389.928 293 399 C 297.119 388.786 303.885 381.218 309 372 C 317.817 376.516 318.945 388.722 327 394 C 331.916 390.375 329.461 384.067 331 379 C 331.604 377.012 334.169 375.920 335 374 C 336.886 369.643 336.459 363.152 339 359 C 346.671 357.996 350.392 360.941 354 364 Z " transform="matrix(0.9638554453849792, 0, 0, 0.9638554453849792, -246.15, -341.2)"/>
    <path id="ID0.4344252715818584" d="M 294 437 C 288 437 282 437 276 437 C 268.433 420.566 263.325 401.675 256 385 C 256 380.333 256 375.667 256 371 C 262.603 369.995 256.122 365.169 257 361 C 266.347 362.014 270.862 358.196 278 357 C 281.002 367.331 285.104 376.562 289 386 C 293.613 379.947 296.005 371.671 301 366 C 304.417 365.250 302.271 370.063 306 369 C 307.566 367.566 306.787 363.788 310 364 C 315.680 366.654 315.369 375.298 321 378 C 323.630 371.963 325.665 365.332 328 359 C 330.465 358.868 332.818 358.849 334 360 C 333.955 356.956 336.111 356.111 337 354 C 338 354 339 354 340 354 C 340 354.333 340 354.667 340 355 C 346.097 355.570 350.740 357.593 356 359 C 356 362.333 356 365.667 356 369 C 355.667 369 355.333 369 355 369 C 352.874 378.274 346.782 387.170 344 397 C 343.401 399.117 344.416 401.956 344 404 C 342.516 411.299 336.696 418.281 339 426 C 330.296 424.629 334.053 435.720 328 437 C 327 437 326 437 325 437 C 325 436.667 325 436.333 325 436 C 321.324 433.996 318.276 435.909 314 436 C 310.284 425.162 312.342 414.448 306 407 C 304.395 414.395 302.026 421.025 300 428 C 292.675 426.516 295.031 434.797 294 437 Z M 339 359 C 336.459 363.152 336.886 369.643 335 374 C 334.169 375.920 331.604 377.012 331 379 C 329.461 384.067 331.916 390.375 327 394 C 318.945 388.722 317.817 376.516 309 372 C 303.885 381.218 297.119 388.786 293 399 C 284.072 389.928 280.890 375.110 276 362 C 270.131 362.131 265.252 363.252 262 366 C 270.248 385.752 277.883 406.117 286 426 C 289.727 424.447 294.837 425.820 297 425 C 300.797 413.464 301.200 398.533 309 391 C 315.368 399.966 320.259 410.408 322 424 C 326 424 330 424 334 424 C 339.487 410.960 339.142 392.377 345 381 C 347.665 375.825 353.346 371.261 354 364 C 350.392 360.941 346.671 357.996 339 359 Z " transform="matrix(0.9638554453849792, 0, 0, 0.9638554453849792, -246.15, -341.2)"/>
  </g>
</svg>
